; generated by PrusaSlicer 2.3.3+win64 on 2021-10-04 at 22:22:09 UTC

; 

; external perimeters extrusion width = 0.45mm
; perimeters extrusion width = 0.45mm
; infill extrusion width = 0.45mm
; solid infill extrusion width = 0.45mm
; top infill extrusion width = 0.40mm
; support material extrusion width = 0.35mm
; first layer extrusion width = 0.42mm

M73 P0 R27
M73 Q0 S27
M201 X1000 Y1000 Z200 E5000 ; sets maximum accelerations, mm/sec^2
M203 X200 Y200 Z12 E120 ; sets maximum feedrates, mm/sec
M204 P1250 R1250 T1250 ; sets acceleration (P, T) and retract acceleration (R), mm/sec^2
M205 X8.00 Y8.00 Z0.40 E4.50 ; sets the jerk limits, mm/sec
M205 S0 T0 ; sets the minimum extruding and travel feed rate, mm/sec
M107
;TYPE:Custom
M862.3 P "MK3S" ; printer model check
M862.1 P0.4 ; nozzle diameter check
M115 U3.10.0 ; tell printer latest fw version
G90 ; use absolute coordinates
M83 ; extruder relative mode
M104 S215 ; set extruder temp
M140 S60 ; set bed temp
M190 S60 ; wait for bed temp
M109 S215 ; wait for extruder temp
G28 W ; home all without mesh bed level
G80 ; mesh bed leveling
G1 Y-3.0 F1000.0 ; go outside print area
G92 E0.0
G1 X60.0 E9.0 F1000.0 ; intro line
G1 X100.0 E12.5 F1000.0 ; intro line
G92 E0.0
M221 S95

; Don't change E values below. Excessive value can damage the printer.
M907 E430 ; set extruder motor current
G21 ; set units to millimeters
G90 ; use absolute coordinates
M83 ; use relative distances for extrusion
M900 K0.05 ; Filament gcode LA 1.5
M900 K30 ; Filament gcode LA 1.0
;LAYER_CHANGE
;Z:0.2
;HEIGHT:0.2
;BEFORE_LAYER_CHANGE
G92 E0.0
;0.2


G1 E-0.80000 F2100.000
G1 Z0.400 F10800.000
;AFTER_LAYER_CHANGE
;0.2
G1 X106.774 Y86.297
G1 Z0.200
G1 E0.80000 F2100.000
M204 S1000
;TYPE:Skirt
;WIDTH:0.42
G1 F1200.000
G1 X107.530 Y85.814 E0.02813
G1 X108.411 Y85.646 E0.02813
G1 X137.142 Y85.817 E0.90083
G1 X138.066 Y86.036 E0.02977
G1 X138.830 Y86.599 E0.02977
G1 X139.276 Y87.316 E0.02649
G1 X139.443 Y88.145 E0.02649
G1 X139.444 Y117.374 E0.91648
G1 X139.390 Y117.866 E0.01550
G1 X139.236 Y118.335 E0.01550
G1 X138.990 Y118.760 E0.01538
G1 X138.659 Y119.127 E0.01550
G1 X137.935 Y119.576 E0.02673
G1 X137.102 Y119.740 E0.02661
G1 X108.382 Y119.570 E0.90051
G1 X107.895 Y119.514 E0.01538
G1 X107.433 Y119.361 E0.01526
G1 X107.009 Y119.114 E0.01538
G1 X106.644 Y118.786 E0.01538
G1 X106.198 Y118.069 E0.02649
G1 X106.032 Y117.240 E0.02649
G1 X106.035 Y87.897 E0.92003
G1 X106.250 Y87.026 E0.02813
G1 X106.739 Y86.346 E0.02625
; printing object intertwined_small.obj id:0 copy 0
;WIPE_START
G1 F8640.000
G1 X107.530 Y85.814 E-0.22012
G1 X108.411 Y85.646 E-0.20719
G1 X109.852 Y85.654 E-0.33269
;WIPE_END
G1 E-0.04000 F2100.000
G1 Z0.600 F10800.000
G1 X108.409 Y88.023
G1 Z0.200
G1 E0.80000 F2100.000
;TYPE:Support material
G1 F1200.000
G1 X108.409 Y117.193 E0.91462
G1 X109.163 Y117.193 E0.02365
G1 X109.163 Y88.193 E0.90929
M73 P1 R27
M73 Q1 S27
G1 X109.917 Y88.193 E0.02365
G1 X109.917 Y117.193 E0.90929
G1 X110.671 Y117.193 E0.02365
G1 X110.671 Y88.193 E0.90929
G1 X111.425 Y88.193 E0.02365
G1 X111.425 Y117.193 E0.90929
G1 X112.179 Y117.193 E0.02365
G1 X112.179 Y88.193 E0.90929
G1 X112.933 Y88.193 E0.02365
G1 X112.933 Y117.193 E0.90929
G1 X113.688 Y117.193 E0.02365
G1 X113.688 Y88.193 E0.90929
G1 X114.442 Y88.193 E0.02365
G1 X114.442 Y117.193 E0.90929
G1 X115.196 Y117.193 E0.02365
G1 X115.196 Y88.193 E0.90929
G1 X115.950 Y88.193 E0.02365
G1 X115.950 Y117.193 E0.90929
G1 X116.165 Y117.193 E0.00673
G1 X116.165 Y97.074 E0.63084
G1 X116.407 Y96.831 E0.01074
G1 X116.704 Y96.831 E0.00932
G1 X116.704 Y88.193 E0.27086
G1 X117.458 Y88.193 E0.02365
G1 X117.458 Y96.831 E0.27086
M73 Q2 S27
G1 X118.213 Y96.831 E0.02365
G1 X118.213 Y88.193 E0.27086
M73 P2 R27
G1 X118.967 Y88.193 E0.02365
G1 X118.967 Y96.831 E0.27086
G1 X119.721 Y96.831 E0.02365
G1 X119.721 Y88.193 E0.27086
G1 X120.475 Y88.193 E0.02365
G1 X120.475 Y96.831 E0.27086
G1 X121.229 Y96.831 E0.02365
G1 X121.229 Y88.193 E0.27086
G1 X121.983 Y88.193 E0.02365
G1 X121.983 Y96.831 E0.27086
G1 X122.738 Y96.831 E0.02365
G1 X122.738 Y88.193 E0.27086
G1 X123.492 Y88.193 E0.02365
G1 X123.492 Y96.831 E0.27086
G1 X124.246 Y96.831 E0.02365
G1 X124.246 Y88.193 E0.27086
G1 X125.000 Y88.193 E0.02365
G1 X125.000 Y96.831 E0.27086
G1 X125.754 Y96.831 E0.02365
G1 X125.754 Y88.193 E0.27086
M73 P2 R26
G1 X126.508 Y88.193 E0.02365
G1 X126.508 Y96.831 E0.27086
G1 X127.262 Y96.831 E0.02365
G1 X127.262 Y88.193 E0.27086
G1 X128.017 Y88.193 E0.02365
G1 X128.017 Y96.831 E0.27086
G1 X128.771 Y96.831 E0.02365
G1 X128.771 Y88.193 E0.27086
G1 X129.525 Y88.193 E0.02365
G1 X129.525 Y96.831 E0.27086
G1 X130.279 Y96.831 E0.02365
G1 X130.279 Y88.193 E0.27086
G1 X131.033 Y88.193 E0.02365
G1 X131.033 Y96.831 E0.27086
G1 X131.787 Y96.831 E0.02365
G1 X131.787 Y88.193 E0.27086
G1 X132.542 Y88.193 E0.02365
G1 X132.542 Y96.831 E0.27086
G1 X133.296 Y96.831 E0.02365
G1 X133.296 Y88.193 E0.27086
G1 X134.050 Y88.193 E0.02365
G1 X134.050 Y96.831 E0.27086
G1 X134.804 Y96.831 E0.02365
G1 X134.804 Y88.193 E0.27086
G1 X135.558 Y88.193 E0.02365
G1 X135.558 Y96.831 E0.27086
G1 X136.312 Y96.831 E0.02365
G1 X136.312 Y88.193 E0.27086
G1 X137.067 Y88.193 E0.02365
G1 X137.067 Y117.363 E0.91462
;WIPE_START
M73 Q2 S26
G1 F8640.000
G1 X137.067 Y114.071 E-0.76000
;WIPE_END
G1 E-0.04000 F2100.000
G1 Z0.600 F10800.000
G1 X134.050 Y115.001
G1 Z0.200
G1 E0.80000 F2100.000
G1 F1200.000
G1 X134.050 Y99.658 E0.48106
G1 X133.296 Y99.658 E0.02365
G1 X133.296 Y114.831 E0.47574
G1 X132.542 Y114.831 E0.02365
G1 X132.542 Y99.658 E0.47574
M73 P3 R26
M73 Q3 S26
G1 X131.787 Y99.658 E0.02365
G1 X131.787 Y114.831 E0.47574
G1 X131.033 Y114.831 E0.02365
G1 X131.033 Y99.658 E0.47574
G1 X130.279 Y99.658 E0.02365
G1 X130.279 Y114.831 E0.47574
G1 X129.525 Y114.831 E0.02365
G1 X129.525 Y99.658 E0.47574
G1 X128.771 Y99.658 E0.02365
G1 X128.771 Y114.831 E0.47574
G1 X128.017 Y114.831 E0.02365
G1 X128.017 Y99.658 E0.47574
G1 X127.262 Y99.658 E0.02365
G1 X127.262 Y114.831 E0.47574
G1 X126.508 Y114.831 E0.02365
G1 X126.508 Y106.649 E0.25655
G1 X125.754 Y106.649 E0.02365
G1 X125.754 Y114.831 E0.25655
G1 X125.000 Y114.831 E0.02365
G1 X125.000 Y106.649 E0.25655
G1 X124.246 Y106.649 E0.02365
G1 X124.246 Y114.831 E0.25655
G1 X123.492 Y114.831 E0.02365
G1 X123.492 Y106.649 E0.25655
G1 X122.738 Y106.649 E0.02365
G1 X122.738 Y114.831 E0.25655
G1 X121.983 Y114.831 E0.02365
G1 X121.983 Y106.649 E0.25655
G1 X121.229 Y106.649 E0.02365
G1 X121.229 Y114.831 E0.25655
G1 X120.475 Y114.831 E0.02365
G1 X120.475 Y106.649 E0.25655
G1 X119.721 Y106.649 E0.02365
G1 X119.721 Y115.001 E0.26187
;WIPE_START
G1 F8640.000
G1 X119.721 Y111.710 E-0.76000
;WIPE_END
G1 E-0.04000 F2100.000
G1 Z0.600 F10800.000
G1 X117.791 Y98.458
G1 Z0.200
G1 E0.80000 F2100.000
;TYPE:Perimeter
G1 F1200.000
G1 X135.365 Y98.458 E0.55103
G1 X135.365 Y116.032 E0.55103
G1 X117.791 Y116.032 E0.55103
G1 X117.791 Y98.518 E0.54914
G1 X118.168 Y98.835 F10800.000
;TYPE:External perimeter
G1 F1200.000
G1 X134.988 Y98.835 E0.52738
G1 X134.988 Y115.655 E0.52738
G1 X118.168 Y115.655 E0.52738
M73 P4 R26
M73 Q4 S26
G1 X118.168 Y98.895 E0.52550
G1 X118.065 Y98.449 F10800.000
;WIPE_START
G1 F8640.000
G1 X121.460 Y98.883 E-0.76000
;WIPE_END
G1 E-0.04000 F2100.000
G1 Z0.600 F10800.000
G1 X117.365 Y98.032
G1 Z0.200
G1 E0.80000 F2100.000
;TYPE:Perimeter
G1 F1200.000
G1 X135.791 Y98.032 E0.57773
G1 X135.791 Y116.458 E0.57773
G1 X117.365 Y116.458 E0.57773
G1 X117.365 Y98.092 E0.57585
G1 X116.988 Y97.655 F10800.000
;TYPE:External perimeter
G1 F1200.000
G1 X136.168 Y97.655 E0.60138
G1 X136.168 Y116.835 E0.60138
G1 X116.988 Y116.835 E0.60138
G1 X116.988 Y97.715 E0.59949
G1 X117.375 Y97.758 F10800.000
; stop printing object intertwined_small.obj id:0 copy 0
M106 S84.15
;LAYER_CHANGE
;Z:0.4
;HEIGHT:0.2
;BEFORE_LAYER_CHANGE
G92 E0.0
;0.4


;WIPE_START
G1 F8640.000
G1 X120.280 Y97.705 E-0.76000
;WIPE_END
G1 E-0.04000 F2100.000
G1 Z0.600 F10800.000
;AFTER_LAYER_CHANGE
;0.4
G1 X107.530 Y85.814
G1 Z0.400
G1 E0.80000 F2100.000
;TYPE:Skirt
G1 F2393
G1 X108.411 Y85.646 E0.02813
G1 X137.142 Y85.817 E0.90083
G1 X138.066 Y86.036 E0.02977
G1 X138.830 Y86.599 E0.02977
G1 X139.276 Y87.316 E0.02649
G1 X139.443 Y88.145 E0.02649
G1 X139.444 Y117.374 E0.91648
G1 X139.390 Y117.866 E0.01550
G1 X139.236 Y118.335 E0.01550
G1 X138.990 Y118.760 E0.01538
G1 X138.659 Y119.127 E0.01550
G1 X137.935 Y119.576 E0.02673
G1 X137.102 Y119.740 E0.02661
G1 X108.382 Y119.570 E0.90051
G1 X107.895 Y119.514 E0.01538
G1 X107.433 Y119.361 E0.01526
G1 X107.009 Y119.114 E0.01538
G1 X106.644 Y118.786 E0.01538
G1 X106.198 Y118.069 E0.02649
G1 X106.032 Y117.240 E0.02649
G1 X106.035 Y87.897 E0.92003
G1 X106.250 Y87.026 E0.02813
G1 X106.774 Y86.297 E0.02813
G1 X107.479 Y85.846 E0.02625
; printing object intertwined_small.obj id:0 copy 0
;WIPE_START
G1 F8640.000
G1 X108.411 Y85.646 E-0.22012
G1 X110.749 Y85.660 E-0.53988
;WIPE_END
G1 E-0.04000 F2100.000
G1 Z0.800 F10800.000
G1 X117.946 Y98.613
G1 Z0.400
G1 E0.80000 F2100.000
M204 S800
;TYPE:Perimeter
;WIDTH:0.45
G1 F2393
G1 X135.210 Y98.613 E0.58437
G1 X135.210 Y115.877 E0.58437
G1 X117.946 Y115.877 E0.58437
G1 X117.946 Y98.673 E0.58234
M204 S1000
G1 X118.353 Y99.020 F10800.000
M204 S800
;TYPE:External perimeter
G1 F1500.000
G1 X134.803 Y99.020 E0.55681
M73 P5 R26
M73 Q5 S26
G1 X134.803 Y115.470 E0.55681
G1 X118.353 Y115.470 E0.55681
G1 X118.353 Y99.080 E0.55478
M204 S1000
G1 X118.250 Y98.634 F10800.000
;WIPE_START
G1 F8640.000
G1 X121.645 Y99.068 E-0.76000
;WIPE_END
G1 E-0.04000 F2100.000
G1 Z0.800 F10800.000
G1 X117.210 Y97.877
G1 Z0.400
G1 E0.80000 F2100.000
M204 S800
;TYPE:Perimeter
G1 F2393
G1 X135.946 Y97.877 E0.63419
G1 X135.946 Y116.613 E0.63419
G1 X117.210 Y116.613 E0.63419
G1 X117.210 Y97.937 E0.63216
M204 S1000
G1 X116.803 Y97.470 F10800.000
M204 S800
;TYPE:External perimeter
G1 F1500.000
G1 X136.353 Y97.470 E0.66174
G1 X136.353 Y117.020 E0.66174
G1 X116.803 Y117.020 E0.66174
G1 X116.803 Y97.530 E0.65971
M204 S1000
G1 X117.190 Y97.573 F10800.000
;WIPE_START
G1 F8640.000
G1 X120.095 Y97.520 E-0.76000
;WIPE_END
G1 E-0.04000 F2100.000
G1 Z0.800 F10800.000
G1 X117.606 Y98.273
G1 Z0.400
G1 E0.80000 F2100.000
;TYPE:Gap fill
;WIDTH:0.371684
G1 F2393
G1 X117.743 Y98.245 E0.00380
G1 X135.414 Y98.245 E0.48308
G1 X135.550 Y98.273 E0.00380
G1 X135.578 Y98.409 E0.00380
G1 X135.578 Y116.081 E0.48308
G1 X135.550 Y116.217 E0.00380
G1 X135.414 Y116.245 E0.00380
G1 X117.743 Y116.245 E0.48308
G1 X117.606 Y116.217 E0.00380
G1 X117.578 Y116.081 E0.00380
G1 X117.578 Y98.409 E0.48308
;WIDTH:0.399889
G1
G1 X117.592 Y98.341 E0.00206
;WIDTH:0.428093
G1
G1 X117.594 Y98.332 E0.00031
; stop printing object intertwined_small.obj id:0 copy 0
;LAYER_CHANGE
;Z:0.431013
;HEIGHT:0.0310128
;BEFORE_LAYER_CHANGE
G92 E0.0
;0.431013


;WIPE_START
G1 F8640.000
G1 X117.743 Y98.245 E-0.03970
G1 X120.862 Y98.245 E-0.72030
;WIPE_END
G1 E-0.04000 F2100.000
G1 Z0.800 F10800.000
;AFTER_LAYER_CHANGE
;0.431013
; printing object intertwined_small.obj id:0 copy 0
G1 X134.338 Y100.386
G1 Z0.431
G1 E0.80000 F2100.000
;TYPE:Support material
;WIDTH:0.35
;HEIGHT:0.231013
G1 F900
G1 X129.614 Y100.386 E0.13630
G1 X129.614 Y102.693 E0.06657
G1 X134.200 Y102.693 E0.13231
G1 X134.200 Y105.000 E0.06657
G1 X129.614 Y105.000 E0.13231
G1 X129.614 Y107.307 E0.06657
G1 X134.200 Y107.307 E0.13231
G1 X134.200 Y109.614 E0.06657
G1 X118.957 Y109.614 E0.43982
G1 X118.957 Y111.921 E0.06657
G1 X134.200 Y111.921 E0.43982
G1 X134.200 Y114.228 E0.06657
G1 X118.819 Y114.228 E0.44381
;WIPE_START
M73 P5 R25
G1 F8640.000
G1 X122.110 Y114.228 E-0.76000
;WIPE_END
G1 E-0.04000 F2100.000
G1 Z0.831 F10800.000
G1 X111.019 Y114.228
M73 P6 R25
M73 Q6 S26
G1 Z0.431
G1 E0.80000 F2100.000
G1 F900
G1 X116.200 Y114.228 E0.14947
G1 X116.200 Y111.921 E0.06657
G1 X111.157 Y111.921 E0.14549
G1 X111.157 Y109.614 E0.06657
G1 X116.200 Y109.614 E0.14549
G1 X115.772 Y109.614 E0.01235
G1 X115.772 Y107.307 E0.06657
G1 X111.157 Y107.307 E0.13314
G1 X111.157 Y105.000 E0.06657
G1 X115.772 Y105.000 E0.13314
G1 X115.772 Y102.693 E0.06657
G1 X111.157 Y102.693 E0.13314
G1 X111.157 Y100.386 E0.06657
G1 X115.772 Y100.386 E0.13314
G1 X115.772 Y98.079 E0.06657
G1 X111.157 Y98.079 E0.13314
G1 X111.157 Y95.772 E0.06657
G1 X134.228 Y95.772 E0.66568
G1 X134.228 Y93.465 E0.06657
G1 X111.157 Y93.465 E0.66568
M73 Q6 S25
G1 X111.157 Y91.158 E0.06657
G1 X134.367 Y91.158 E0.66967
; stop printing object intertwined_small.obj id:0 copy 0
M106 S170.85
;LAYER_CHANGE
;Z:0.6
;HEIGHT:0.168987
;BEFORE_LAYER_CHANGE
G92 E0.0
;0.6


;WIPE_START
G1 F8640.000
G1 X131.075 Y91.158 E-0.76000
;WIPE_END
G1 E-0.04000 F2100.000
G1 Z0.831 F10800.000
;AFTER_LAYER_CHANGE
;0.6
G1 X138.066 Y86.036
G1 Z0.600
G1 E0.80000 F2100.000
;TYPE:Skirt
;WIDTH:0.42
;HEIGHT:0.2
G1 F2375
G1 X138.830 Y86.599 E0.02977
G1 X139.276 Y87.316 E0.02649
G1 X139.443 Y88.145 E0.02649
G1 X139.444 Y117.374 E0.91648
G1 X139.390 Y117.866 E0.01550
G1 X139.236 Y118.335 E0.01550
G1 X138.990 Y118.760 E0.01538
G1 X138.659 Y119.127 E0.01550
G1 X137.935 Y119.576 E0.02673
G1 X137.102 Y119.740 E0.02661
G1 X108.382 Y119.570 E0.90051
G1 X107.895 Y119.514 E0.01538
G1 X107.433 Y119.361 E0.01526
G1 X107.009 Y119.114 E0.01538
G1 X106.644 Y118.786 E0.01538
G1 X106.198 Y118.069 E0.02649
G1 X106.032 Y117.240 E0.02649
G1 X106.035 Y87.897 E0.92003
G1 X106.250 Y87.026 E0.02813
G1 X106.774 Y86.297 E0.02813
G1 X107.530 Y85.814 E0.02813
G1 X108.411 Y85.646 E0.02813
G1 X137.142 Y85.817 E0.90083
G1 X138.007 Y86.022 E0.02789
; printing object intertwined_small.obj id:0 copy 0
;WIPE_START
G1 F8640.000
G1 X138.830 Y86.599 E-0.23208
G1 X139.276 Y87.316 E-0.19509
G1 X139.443 Y88.145 E-0.19509
G1 X139.443 Y88.741 E-0.13774
;WIPE_END
G1 E-0.04000 F2100.000
G1 Z1.000 F10800.000
G1 X135.210 Y98.613
G1 Z0.600
G1 E0.80000 F2100.000
M204 S800
;TYPE:Perimeter
;WIDTH:0.45
G1 F2375
G1 X135.210 Y115.877 E0.58437
G1 X117.946 Y115.877 E0.58437
G1 X117.946 Y98.613 E0.58437
G1 X135.150 Y98.613 E0.58234
M204 S1000
G1 X134.803 Y99.020 F10800.000
M204 S800
;TYPE:External perimeter
G1 F1500.000
G1 X134.803 Y115.470 E0.55681
G1 X118.353 Y115.470 E0.55681
M73 P7 R25
M73 Q7 S25
G1 X118.353 Y99.020 E0.55681
G1 X134.743 Y99.020 E0.55478
M204 S1000
G1 X135.190 Y98.916 F10800.000
;WIPE_START
G1 F8640.000
G1 X134.755 Y102.311 E-0.76000
;WIPE_END
G1 E-0.04000 F2100.000
G1 Z1.000 F10800.000
G1 X135.946 Y97.877
G1 Z0.600
G1 E0.80000 F2100.000
M204 S800
;TYPE:Perimeter
G1 F2375
G1 X135.946 Y116.613 E0.63419
G1 X117.210 Y116.613 E0.63419
G1 X117.210 Y97.877 E0.63419
G1 X135.886 Y97.877 E0.63216
M204 S1000
G1 X136.353 Y97.470 F10800.000
M204 S800
;TYPE:External perimeter
G1 F1500.000
G1 X136.353 Y117.020 E0.66174
G1 X116.803 Y117.020 E0.66174
G1 X116.803 Y97.470 E0.66174
G1 X136.293 Y97.470 E0.65971
M204 S1000
G1 X136.250 Y97.856 F10800.000
;WIPE_START
G1 F8640.000
G1 X136.303 Y100.761 E-0.76000
;WIPE_END
G1 E-0.04000 F2100.000
G1 Z1.000 F10800.000
G1 X135.550 Y98.273
G1 Z0.600
G1 E0.80000 F2100.000
;TYPE:Gap fill
;WIDTH:0.371684
G1 F2375
G1 X135.578 Y98.409 E0.00380
G1 X135.578 Y116.081 E0.48308
G1 X135.550 Y116.217 E0.00380
G1 X135.414 Y116.245 E0.00380
G1 X117.743 Y116.245 E0.48308
G1 X117.606 Y116.217 E0.00380
G1 X117.578 Y116.081 E0.00380
G1 X117.578 Y98.409 E0.48308
;WIDTH:0.399889
G1
G1 X117.592 Y98.341 E0.00206
;WIDTH:0.428093
G1
G1 X117.606 Y98.273 E0.00223
;WIDTH:0.371684
G1
G1 X117.743 Y98.245 E0.00380
G1 X135.414 Y98.245 E0.48308
G1 X135.491 Y98.261 E0.00216
; stop printing object intertwined_small.obj id:0 copy 0
;LAYER_CHANGE
;Z:0.662026
;HEIGHT:0.0620256
;BEFORE_LAYER_CHANGE
G92 E0.0
;0.662026


;WIPE_START
G1 F8640.000
G1 X135.578 Y98.409 E-0.03970
G1 X135.578 Y101.529 E-0.72030
;WIPE_END
G1 E-0.04000 F2100.000
G1 Z1.000 F10800.000
;AFTER_LAYER_CHANGE
;0.662026
; printing object intertwined_small.obj id:0 copy 0
G1 X134.338 Y100.386
G1 Z0.662
G1 E0.80000 F2100.000
;TYPE:Support material
;WIDTH:0.35
;HEIGHT:0.231013
G1 F900
G1 X129.614 Y100.386 E0.13630
G1 X129.614 Y102.693 E0.06657
G1 X134.200 Y102.693 E0.13231
G1 X134.200 Y105.000 E0.06657
G1 X129.614 Y105.000 E0.13231
G1 X129.614 Y107.307 E0.06657
G1 X134.200 Y107.307 E0.13231
